src/Static/Positions/ks-position-46.svg

<?xml version="1.0" encoding="UTF-8"?>
<svg width="254px" height="192px" viewBox="0 0 254 192" version="1.1" xmlns="http://www.w3.org/2000/svg" xmlns:xlink="http://www.w3.org/1999/xlink">
    <title>sex-etsy-46</title>
    <defs>
        <path d="M95.765,178.3305 C93.7777,173.5278 94.8705,168.0517 98.5482,164.3793 L103.0155,159.919 L82.1838,166.7373 C76.7863,168.5029 70.9574,165.5493 69.1908,160.1521 C68.7342,158.7582 68.5808,157.316 68.7346,155.8662 C69.1621,151.837 71.9257,148.4201 75.7755,147.159 L88.2523,143.0755 C86.2862,142.5626 84.3979,142.0688 82.6122,141.6166 C72.8338,138.2076 60.7342,141.3044 58.1417,149.7103 C55.551,158.1183 59.5021,170.7282 73.8473,176.5568 C83.9869,180.6073 92.3576,183.1448 101.115,184.4799 C98.7609,183.1004 96.8588,180.9753 95.765,178.3305 Z" id="path-1"></path>
        <filter x="-18.6%" y="-14.7%" width="146.3%" height="141.1%" filterUnits="objectBoundingBox" id="filter-2">
            <feMorphology radius="1.5" operator="dilate" in="SourceAlpha" result="shadowSpreadOuter1"></feMorphology>
            <feOffset dx="0" dy="2" in="shadowSpreadOuter1" result="shadowOffsetOuter1"></feOffset>
            <feGaussianBlur stdDeviation="2" in="shadowOffsetOuter1" result="shadowBlurOuter1"></feGaussianBlur>
            <feComposite in="shadowBlurOuter1" in2="SourceAlpha" operator="out" result="shadowBlurOuter1"></feComposite>
            <feColorMatrix values="0 0 0 0 0   0 0 0 0 0   0 0 0 0 0  0 0 0 1 0" type="matrix" in="shadowBlurOuter1"></feColorMatrix>
        </filter>
        <path d="M232.9669,179.4936 C238.3273,183.8422 246.1988,183.0229 250.5494,177.6625 C254.899,172.3012 254.0787,164.4291 248.7179,160.0795 L205.2098,124.7805 C204.7372,126.003 203.9997,127.1165 203.0131,128.037 C201.3783,129.5629 199.2465,130.4032 197.0102,130.4032 C194.5795,130.4032 192.2338,129.3846 190.5756,127.6078 L180.4295,116.7368 C180.2823,116.8455 180.1314,116.9469 179.9879,117.0629 L166.09,128.2894 C165.763,133.8844 162.5456,137.3277 160.0072,139.1909 L138.5277,160.6372 L165.8292,160.6372 L187.8254,142.8697 L232.9669,179.4936 Z" id="path-3"></path>
        <filter x="-9.3%" y="-10.5%" width="116.7%" height="126.5%" filterUnits="objectBoundingBox" id="filter-4">
            <feMorphology radius="1.5" operator="dilate" in="SourceAlpha" result="shadowSpreadOuter1"></feMorphology>
            <feOffset dx="0" dy="2" in="shadowSpreadOuter1" result="shadowOffsetOuter1"></feOffset>
            <feGaussianBlur stdDeviation="2" in="shadowOffsetOuter1" result="shadowBlurOuter1"></feGaussianBlur>
            <feComposite in="shadowBlurOuter1" in2="SourceAlpha" operator="out" result="shadowBlurOuter1"></feComposite>
            <feColorMatrix values="0 0 0 0 0   0 0 0 0 0   0 0 0 0 0  0 0 0 1 0" type="matrix" in="shadowBlurOuter1"></feColorMatrix>
        </filter>
        <circle id="path-5" cx="31.4956981" cy="157.673913" r="22.4998472"></circle>
        <filter x="-18.9%" y="-14.4%" width="137.8%" height="137.8%" filterUnits="objectBoundingBox" id="filter-6">
            <feMorphology radius="1.5" operator="dilate" in="SourceAlpha" result="shadowSpreadOuter1"></feMorphology>
            <feOffset dx="0" dy="2" in="shadowSpreadOuter1" result="shadowOffsetOuter1"></feOffset>
            <feGaussianBlur stdDeviation="2" in="shadowOffsetOuter1" result="shadowBlurOuter1"></feGaussianBlur>
            <feComposite in="shadowBlurOuter1" in2="SourceAlpha" operator="out" result="shadowBlurOuter1"></feComposite>
            <feColorMatrix values="0 0 0 0 0   0 0 0 0 0   0 0 0 0 0  0 0 0 1 0" type="matrix" in="shadowBlurOuter1"></feColorMatrix>
        </filter>
        <path d="M132.9691,162.9369 L158.5101,137.4354 C163.4784,133.8741 165.849,127.928 161.6966,118.7678 C155.3442,104.7547 153.7816,95.3869 153.9016,88.3136 L139.1,72.4545 C137.4965,70.7357 136.6576,68.4955 136.7387,66.1464 C136.8198,63.7973 137.811,61.62 139.5297,60.0165 C141.1635,58.4906 143.2953,57.6503 145.5317,57.6503 C147.9633,57.6503 150.309,58.6693 151.9672,60.4457 L154.5857,63.2512 C154.6451,63.0055 154.7123,62.7604 154.7775,62.515 C150.3169,51.0083 139.9186,48.6814 131.6181,53.097 C130.5922,62.0177 126.8486,65.1397 124.0458,67.585 C120.203,69.2172 116.3497,71.0107 114.2667,72.4226 C113.9577,72.1481 113.5553,71.9762 113.1095,71.9762 C112.143,71.9762 111.3595,72.7597 111.3595,73.7262 C111.3595,74.3285 111.6641,74.8594 112.1273,75.1743 C109.5519,81.7077 111.4242,93.1183 125.5717,88.6866 C127.0571,94.0248 128.0629,98.963 128.7512,103.5347 C131.929,100.4728 136.8595,99.6919 140.9108,101.9473 C144.5272,103.9602 146.5813,107.9206 146.1446,112.0372 C145.9981,113.4181 145.5793,114.7367 144.8999,115.9571 L126.2648,149.4279 C124.9988,151.7016 122.9406,153.3982 120.469,154.2064 L107.8579,158.3341 L100.1733,166.0067 C97.1674,169.0082 96.2661,173.5257 97.8901,177.451 C99.5141,181.3768 103.3442,183.9368 107.5922,183.9368 L172.5922,183.9368 C178.391,183.9368 183.0922,179.2356 183.0922,173.4368 C183.0922,167.638 178.391,162.9368 172.5922,162.9368 L132.9691,162.9368 L132.9691,162.9369 Z" id="path-7"></path>
        <filter x="-9.9%" y="-4.9%" width="119.8%" height="112.8%" filterUnits="objectBoundingBox" id="filter-8">
            <feMorphology radius="1.5" operator="dilate" in="SourceAlpha" result="shadowSpreadOuter1"></feMorphology>
            <feOffset dx="0" dy="2" in="shadowSpreadOuter1" result="shadowOffsetOuter1"></feOffset>
            <feGaussianBlur stdDeviation="2" in="shadowOffsetOuter1" result="shadowBlurOuter1"></feGaussianBlur>
            <feComposite in="shadowBlurOuter1" in2="SourceAlpha" operator="out" result="shadowBlurOuter1"></feComposite>
            <feColorMatrix values="0 0 0 0 0   0 0 0 0 0   0 0 0 0 0  0 0 0 0.5 0" type="matrix" in="shadowBlurOuter1"></feColorMatrix>
        </filter>
        <path d="M119.7542,152.0202 C121.6683,151.3944 123.2757,150.0683 124.2553,148.3093 L142.8904,114.8385 C143.4309,113.8677 143.7473,112.8337 143.8575,111.7947 C144.1857,108.7007 142.682,105.5656 139.7921,103.9568 C135.9318,101.8081 131.0602,103.1944 128.9109,107.0546 L111.7995,137.789 L76.4912,149.3453 C72.293,150.7196 70.0018,155.2375 71.3766,159.4362 C72.7512,163.6359 77.2694,165.9252 81.4685,164.5509 L119.7542,152.0202 Z" id="path-9"></path>
        <filter x="-11.7%" y="-10.5%" width="123.3%" height="127.4%" filterUnits="objectBoundingBox" id="filter-10">
            <feMorphology radius="1.5" operator="dilate" in="SourceAlpha" result="shadowSpreadOuter1"></feMorphology>
            <feOffset dx="0" dy="2" in="shadowSpreadOuter1" result="shadowOffsetOuter1"></feOffset>
            <feGaussianBlur stdDeviation="2" in="shadowOffsetOuter1" result="shadowBlurOuter1"></feGaussianBlur>
            <feComposite in="shadowBlurOuter1" in2="SourceAlpha" operator="out" result="shadowBlurOuter1"></feComposite>
            <feColorMatrix values="0 0 0 0 0   0 0 0 0 0   0 0 0 0 0  0 0 0 1 0" type="matrix" in="shadowBlurOuter1"></feColorMatrix>
        </filter>
        <path d="M163.4928,40.1584 C165.7624,45.9289 158.2053,55.8861 156.5018,65.3043 L166.2851,75.7865 C166.1004,72.5132 167.2114,67.8649 170.6323,61.2145 C178.4383,46.039 172.9464,37.856 166.8757,33.0919 C166.5495,34.2219 166.1364,35.3416 165.6308,36.4421 C165.022,37.767 164.3008,39.0041 163.4928,40.1584 Z" id="path-11"></path>
        <filter x="-47.8%" y="-17.6%" width="195.1%" height="151.0%" filterUnits="objectBoundingBox" id="filter-12">
            <feMorphology radius="1.5" operator="dilate" in="SourceAlpha" result="shadowSpreadOuter1"></feMorphology>
            <feOffset dx="0" dy="2" in="shadowSpreadOuter1" result="shadowOffsetOuter1"></feOffset>
            <feGaussianBlur stdDeviation="2" in="shadowOffsetOuter1" result="shadowBlurOuter1"></feGaussianBlur>
            <feComposite in="shadowBlurOuter1" in2="SourceAlpha" operator="out" result="shadowBlurOuter1"></feComposite>
            <feColorMatrix values="0 0 0 0 0   0 0 0 0 0   0 0 0 0 0  0 0 0 0.5 0" type="matrix" in="shadowBlurOuter1"></feColorMatrix>
        </filter>
        <circle id="path-13" cx="144.005791" cy="26.499525" r="21.5002522"></circle>
        <filter x="-19.8%" y="-15.1%" width="139.5%" height="139.5%" filterUnits="objectBoundingBox" id="filter-14">
            <feMorphology radius="1.5" operator="dilate" in="SourceAlpha" result="shadowSpreadOuter1"></feMorphology>
            <feOffset dx="0" dy="2" in="shadowSpreadOuter1" result="shadowOffsetOuter1"></feOffset>
            <feGaussianBlur stdDeviation="2" in="shadowOffsetOuter1" result="shadowBlurOuter1"></feGaussianBlur>
            <feComposite in="shadowBlurOuter1" in2="SourceAlpha" operator="out" result="shadowBlurOuter1"></feComposite>
            <feColorMatrix values="0 0 0 0 0   0 0 0 0 0   0 0 0 0 0  0 0 0 0.5 0" type="matrix" in="shadowBlurOuter1"></feColorMatrix>
        </filter>
        <path d="M150.2855,62.0151 C147.8353,59.3901 143.721,59.25 141.099,61.6982 C138.474,64.1474 138.3324,68.2607 140.7816,70.8852 L192.2572,126.0385 C193.5375,127.4101 195.2718,128.1034 197.0101,128.1034 C198.599,128.1034 200.1917,127.5243 201.4437,126.3554 C204.0687,123.9062 204.2103,119.7929 201.7611,117.1684 L150.2855,62.0151 Z" id="path-15"></path>
        <filter x="-13.2%" y="-9.5%" width="126.4%" height="124.9%" filterUnits="objectBoundingBox" id="filter-16">
            <feMorphology radius="1.5" operator="dilate" in="SourceAlpha" result="shadowSpreadOuter1"></feMorphology>
            <feOffset dx="0" dy="2" in="shadowSpreadOuter1" result="shadowOffsetOuter1"></feOffset>
            <feGaussianBlur stdDeviation="2" in="shadowOffsetOuter1" result="shadowBlurOuter1"></feGaussianBlur>
            <feComposite in="shadowBlurOuter1" in2="SourceAlpha" operator="out" result="shadowBlurOuter1"></feComposite>
            <feColorMatrix values="0 0 0 0 0   0 0 0 0 0   0 0 0 0 0  0 0 0 0.5 0" type="matrix" in="shadowBlurOuter1"></feColorMatrix>
        </filter>
    </defs>
    <g id="Page-2" stroke="none" stroke-width="1" fill="none" fill-rule="evenodd">
        <g id="sex-etsy-46" transform="translate(-5.000000, -1.000000)" fill-rule="nonzero">
            <g id="Path">
                <use fill="black" fill-opacity="1" filter="url(#filter-2)" xlink:href="#path-1"></use>
                <use stroke="#1A1A1D" stroke-width="3" fill="#4E4E50" xlink:href="#path-1"></use>
            </g>
            <g id="Path">
                <use fill="black" fill-opacity="1" filter="url(#filter-4)" xlink:href="#path-3"></use>
                <use stroke="#1A1A1D" stroke-width="3" fill="#4E4E50" xlink:href="#path-3"></use>
            </g>
            <g id="Oval" transform="translate(31.495698, 157.673913) rotate(-56.089046) translate(-31.495698, -157.673913) ">
                <use fill="black" fill-opacity="1" filter="url(#filter-6)" xlink:href="#path-5"></use>
                <use stroke="#1A1A1D" stroke-width="3" fill="#4E4E50" xlink:href="#path-5"></use>
            </g>
            <g id="Path">
                <use fill="black" fill-opacity="1" filter="url(#filter-8)" xlink:href="#path-7"></use>
                <use stroke="#1A1A1D" stroke-width="3" fill="#6F2232" xlink:href="#path-7"></use>
            </g>
            <g id="Path">
                <use fill="black" fill-opacity="1" filter="url(#filter-10)" xlink:href="#path-9"></use>
                <use stroke="#1A1A1D" stroke-width="3" fill="#4E4E50" xlink:href="#path-9"></use>
            </g>
            <g id="Path">
                <use fill="black" fill-opacity="1" filter="url(#filter-12)" xlink:href="#path-11"></use>
                <use stroke="#1A1A1D" stroke-width="3" fill="#6F2232" xlink:href="#path-11"></use>
            </g>
            <g id="Oval" transform="translate(144.005791, 26.499525) rotate(-14.329453) translate(-144.005791, -26.499525) ">
                <use fill="black" fill-opacity="1" filter="url(#filter-14)" xlink:href="#path-13"></use>
                <use stroke="#1A1A1D" stroke-width="3" fill="#6F2232" xlink:href="#path-13"></use>
            </g>
            <g id="Path">
                <use fill="black" fill-opacity="1" filter="url(#filter-16)" xlink:href="#path-15"></use>
                <use stroke="#1A1A1D" stroke-width="3" fill="#6F2232" xlink:href="#path-15"></use>
            </g>
        </g>
    </g>
</svg>

<svg xmlns="http://www.w3.org/2000/svg" width="254" height="192" xmlns:xlink="http://www.w3.org/1999/xlink"><title>sex-etsy-46</title><defs><path id="b" d="M95.77 178.33c-2-4.8-.9-10.28 2.78-13.95l4.47-4.46-20.84 6.82c-5.4 1.76-11.22-1.2-13-6.6-.45-1.38-.6-2.82-.45-4.27.43-4.03 3.2-7.45 7.05-8.7l12.47-4.1c-1.96-.5-3.85-1-5.64-1.45-9.77-3.4-21.87-.32-24.46 8.1-2.6 8.4 1.36 21 15.7 26.84 10.15 4.05 18.52 6.58 27.27 7.92-2.34-1.38-4.24-3.5-5.33-6.15z"/><filter id="a" width="146.3%" height="141.1%" x="-18.6%" y="-14.7%" filterUnits="objectBoundingBox"><feMorphology radius="1.5" operator="dilate" in="SourceAlpha" result="shadowSpreadOuter1"/><feOffset dy="2" in="shadowSpreadOuter1" result="shadowOffsetOuter1"/><feGaussianBlur stdDeviation="2" in="shadowOffsetOuter1" result="shadowBlurOuter1"/><feComposite in="shadowBlurOuter1" in2="SourceAlpha" operator="out" result="shadowBlurOuter1"/><feColorMatrix values="0 0 0 0 0 0 0 0 0 0 0 0 0 0 0 0 0 0 1 0" in="shadowBlurOuter1"/></filter><path id="d" d="M232.97 179.5c5.36 4.34 13.23 3.52 17.58-1.84 4.35-5.36 3.53-13.23-1.83-17.58l-43.5-35.3c-.48 1.22-1.22 2.34-2.2 3.26-1.64 1.52-3.77 2.36-6 2.36-2.44 0-4.8-1.02-6.44-2.8l-10.15-10.86c-.15.1-.3.2-.44.32l-13.9 11.23c-.34 5.58-3.55 9.03-6.1 10.9l-21.47 21.44h27.3l22-17.77 45.14 36.62z"/><filter id="c" width="116.7%" height="126.5%" x="-9.3%" y="-10.5%" filterUnits="objectBoundingBox"><feMorphology radius="1.5" operator="dilate" in="SourceAlpha" result="shadowSpreadOuter1"/><feOffset dy="2" in="shadowSpreadOuter1" result="shadowOffsetOuter1"/><feGaussianBlur stdDeviation="2" in="shadowOffsetOuter1" result="shadowBlurOuter1"/><feComposite in="shadowBlurOuter1" in2="SourceAlpha" operator="out" result="shadowBlurOuter1"/><feColorMatrix values="0 0 0 0 0 0 0 0 0 0 0 0 0 0 0 0 0 0 1 0" in="shadowBlurOuter1"/></filter><circle id="f" cx="31.496" cy="157.674" r="22.5"/><filter id="e" width="137.8%" height="137.8%" x="-18.9%" y="-14.4%" filterUnits="objectBoundingBox"><feMorphology radius="1.5" operator="dilate" in="SourceAlpha" result="shadowSpreadOuter1"/><feOffset dy="2" in="shadowSpreadOuter1" result="shadowOffsetOuter1"/><feGaussianBlur stdDeviation="2" in="shadowOffsetOuter1" result="shadowBlurOuter1"/><feComposite in="shadowBlurOuter1" in2="SourceAlpha" operator="out" result="shadowBlurOuter1"/><feColorMatrix values="0 0 0 0 0 0 0 0 0 0 0 0 0 0 0 0 0 0 1 0" in="shadowBlurOuter1"/></filter><path id="h" d="M132.97 162.94l25.54-25.5c4.98-3.57 7.35-9.5 3.2-18.67-6.36-14.02-7.92-23.38-7.8-30.46l-14.8-15.85c-1.6-1.7-2.44-3.95-2.36-6.3.08-2.35 1.07-4.53 2.8-6.13 1.62-1.53 3.76-2.37 6-2.37 2.42 0 4.77 1.02 6.43 2.8l2.62 2.8c.05-.24.1-.5.18-.73-4.46-11.5-14.86-13.84-23.16-9.42-1.03 8.92-4.77 12.04-7.57 14.48-3.85 1.64-7.7 3.43-9.78 4.84-.3-.27-.7-.44-1.16-.44-.96 0-1.74.78-1.74 1.75 0 .6.3 1.13.77 1.44-2.58 6.54-.7 17.95 13.44 13.52 1.5 5.32 2.5 10.26 3.18 14.83 3.18-3.06 8.1-3.84 12.16-1.58 3.63 2 5.68 5.97 5.24 10.1-.14 1.37-.56 2.7-1.24 3.9l-18.64 33.48c-1.26 2.27-3.32 3.97-5.8 4.78l-12.6 4.13-7.7 7.68c-3 3-3.9 7.53-2.27 11.45 1.6 3.93 5.44 6.5 9.7 6.5h65c5.8 0 10.5-4.7 10.5-10.5s-4.7-10.5-10.5-10.5h-39.63z"/><filter id="g" width="119.8%" height="112.8%" x="-9.9%" y="-4.9%" filterUnits="objectBoundingBox"><feMorphology radius="1.5" operator="dilate" in="SourceAlpha" result="shadowSpreadOuter1"/><feOffset dy="2" in="shadowSpreadOuter1" result="shadowOffsetOuter1"/><feGaussianBlur stdDeviation="2" in="shadowOffsetOuter1" result="shadowBlurOuter1"/><feComposite in="shadowBlurOuter1" in2="SourceAlpha" operator="out" result="shadowBlurOuter1"/><feColorMatrix values="0 0 0 0 0 0 0 0 0 0 0 0 0 0 0 0 0 0 0.5 0" in="shadowBlurOuter1"/></filter><path id="j" d="M119.75 152.02c1.92-.63 3.53-1.95 4.5-3.7l18.64-33.48c.53-.97.85-2 .96-3.05.33-3.1-1.18-6.23-4.07-7.84-3.87-2.15-8.74-.77-10.9 3.1l-17.1 30.73-35.3 11.55c-4.2 1.37-6.5 5.9-5.12 10.1 1.37 4.2 5.9 6.48 10.1 5.1l38.27-12.53z"/><filter id="i" width="123.3%" height="127.4%" x="-11.7%" y="-10.5%" filterUnits="objectBoundingBox"><feMorphology radius="1.5" operator="dilate" in="SourceAlpha" result="shadowSpreadOuter1"/><feOffset dy="2" in="shadowSpreadOuter1" result="shadowOffsetOuter1"/><feGaussianBlur stdDeviation="2" in="shadowOffsetOuter1" result="shadowBlurOuter1"/><feComposite in="shadowBlurOuter1" in2="SourceAlpha" operator="out" result="shadowBlurOuter1"/><feColorMatrix values="0 0 0 0 0 0 0 0 0 0 0 0 0 0 0 0 0 0 1 0" in="shadowBlurOuter1"/></filter><path id="l" d="M163.5 40.16c2.26 5.77-5.3 15.73-7 25.14l9.8 10.5c-.2-3.3.9-7.94 4.33-14.6 7.8-15.16 2.32-23.34-3.75-28.1-.33 1.12-.74 2.24-1.25 3.34-.6 1.33-1.33 2.56-2.14 3.72z"/><filter id="k" width="195.1%" height="151%" x="-47.8%" y="-17.6%" filterUnits="objectBoundingBox"><feMorphology radius="1.5" operator="dilate" in="SourceAlpha" result="shadowSpreadOuter1"/><feOffset dy="2" in="shadowSpreadOuter1" result="shadowOffsetOuter1"/><feGaussianBlur stdDeviation="2" in="shadowOffsetOuter1" result="shadowBlurOuter1"/><feComposite in="shadowBlurOuter1" in2="SourceAlpha" operator="out" result="shadowBlurOuter1"/><feColorMatrix values="0 0 0 0 0 0 0 0 0 0 0 0 0 0 0 0 0 0 0.5 0" in="shadowBlurOuter1"/></filter><circle id="n" cx="144.006" cy="26.5" r="21.5"/><filter id="m" width="139.5%" height="139.5%" x="-19.8%" y="-15.1%" filterUnits="objectBoundingBox"><feMorphology radius="1.5" operator="dilate" in="SourceAlpha" result="shadowSpreadOuter1"/><feOffset dy="2" in="shadowSpreadOuter1" result="shadowOffsetOuter1"/><feGaussianBlur stdDeviation="2" in="shadowOffsetOuter1" result="shadowBlurOuter1"/><feComposite in="shadowBlurOuter1" in2="SourceAlpha" operator="out" result="shadowBlurOuter1"/><feColorMatrix values="0 0 0 0 0 0 0 0 0 0 0 0 0 0 0 0 0 0 0.5 0" in="shadowBlurOuter1"/></filter><path id="p" d="M150.3 62.02c-2.46-2.63-6.58-2.77-9.2-.32-2.63 2.45-2.77 6.56-.32 9.2l51.48 55.14c1.28 1.37 3 2.06 4.75 2.06 1.6 0 3.2-.58 4.44-1.74 2.63-2.45 2.77-6.57.32-9.2L150.3 62.03z"/><filter id="o" width="126.4%" height="124.9%" x="-13.2%" y="-9.5%" filterUnits="objectBoundingBox"><feMorphology radius="1.5" operator="dilate" in="SourceAlpha" result="shadowSpreadOuter1"/><feOffset dy="2" in="shadowSpreadOuter1" result="shadowOffsetOuter1"/><feGaussianBlur stdDeviation="2" in="shadowOffsetOuter1" result="shadowBlurOuter1"/><feComposite in="shadowBlurOuter1" in2="SourceAlpha" operator="out" result="shadowBlurOuter1"/><feColorMatrix values="0 0 0 0 0 0 0 0 0 0 0 0 0 0 0 0 0 0 0.5 0" in="shadowBlurOuter1"/></filter></defs><g fill="none"><g fill-rule="nonzero"><g id="Path" transform="translate(-5 -1)"><use fill="#000" filter="url(#a)" xlink:href="#b"/><use fill="#4E4E50" stroke="#1A1A1D" stroke-width="3" xlink:href="#b"/></g><g id="Path" transform="translate(-5 -1)"><use fill="#000" filter="url(#c)" xlink:href="#d"/><use fill="#4E4E50" stroke="#1A1A1D" stroke-width="3" xlink:href="#d"/></g><g id="Oval" transform="translate(-5 -1) rotate(-56.089 31.496 157.674)"><use fill="#000" filter="url(#e)" xlink:href="#f"/><use fill="#4E4E50" stroke="#1A1A1D" stroke-width="3" xlink:href="#f"/></g><g id="Path" transform="translate(-5 -1)"><use fill="#000" filter="url(#g)" xlink:href="#h"/><use fill="#6F2232" stroke="#1A1A1D" stroke-width="3" xlink:href="#h"/></g><g id="Path" transform="translate(-5 -1)"><use fill="#000" filter="url(#i)" xlink:href="#j"/><use fill="#4E4E50" stroke="#1A1A1D" stroke-width="3" xlink:href="#j"/></g><g id="Path" transform="translate(-5 -1)"><use fill="#000" filter="url(#k)" xlink:href="#l"/><use fill="#6F2232" stroke="#1A1A1D" stroke-width="3" xlink:href="#l"/></g><g transform="translate(-5 -1) rotate(-14.329 144.006 26.5)"><use fill="#000" filter="url(#m)" xlink:href="#n"/><use fill="#6F2232" stroke="#1A1A1D" stroke-width="3" xlink:href="#n"/></g><g transform="translate(-5 -1)"><use fill="#000" filter="url(#o)" xlink:href="#p"/><use fill="#6F2232" stroke="#1A1A1D" stroke-width="3" xlink:href="#p"/></g></g></g></svg>
